X: 2140
T: Şarkımı Senin İçin...
C: İrfan Özbakır
O: Turkey
F: http://compmusic.upf.edu/node/140
N: mahur--sarki--semai--sarkimi_senin--irfan_ozbakir
N: makam= mahur
N: form= sarki
N: usul= semai = 3/4
M: 3/4
L: 1/16
K: C ^9/8f   
Q: 1/4=192
%%MIDI tuningsystem comma53
g4 g4 f2e2  | g4 g4 f2e2  | g4 g4 f2g2  | a12  | \
w:  SAZ  |   |   |   | 
a4 a4 g2f2  | a4 a4 g2f2  | 
w:   |   | 
a4 a4 g2a2  | b12  | c'4 b4 a4  | g4 f4 e4  | \
w:   |   |   |   | 
d4 e4 f4  | g12  | g4 f4 e4  | d4 c4 B4  | 
w:   |   |   |   | 
A4 B4 e2d2  | d12  | c4 e2e2 e2e2  | B4 d2d2 d2d2  | \
w:   |   |   |   | 
A4 c2c2 c2c2  | G4 B8  | 
w:   |   | 
g4 f4 e4  | d4 c4 B4  | A4 B4 F4  | G12  | \
w:   |   |   |   | 
c4 e2e2 e2e2  | B4 d2d2 d2d2  | A4 c2c2 c2c2  | 
w:   |   |   | 
G4 B8  | g4 f4 e4  | d4 c4 B4  | A4 B4 F4  | G12  | \
w:   |   |   |   |   | 
g8 g4  | g12  | g4 a4 g4  | f8 z4  | f4 g4 f4  | 
w:  Şar kı  |  mı   |  se nin_ i  |  çin   |  yaz dı ğı  | 
e12  | d4 e4 f4  | g12  | g8 g4  | g12  | g4 a4 g4  | \
w:  mı   |  bil sey  |  din    |  Şar kı  |  mı   |  se nin_ i  | 
f8 z4  | f4 g4 f4  | e12  | d4 e4 f4  | g12  | 
w:  çin   |  yaz dı ğı  |  mı   |  bil sey  |  din    | 
d4 d4 d4  | g4 f4 e4  | d4 c4 B4  | A12  | \
w:  Dün ya nın   |  bir   |  u cun  |  dan   | 
d4 d6d2  | d12  | B4 A4 B4  | G12  | d4 d4 d4  | 
w:  kal kıp  ba  |  na   |  gel sey  |  din    |  Dün ya nın   | 
g4 f4 e4  | d4 c4 B4  | A12  | d4 d6d2  | d12  | \
w:  bir   |  u cun  |  dan   |  kal kıp  ba  |  na   | 
B4 A4 B4  | G12  | d4 d2d2 e2c2  | B4 B2c2 d2B2  | 
w:  gel sey  |  din    |  SAZ  |   | 
A4 A2B2 c2A2  | G2A2 B2c2 d2e2  | d4 d2d2 e2c2  | \
w:   |   |   | 
B4 B2B2 d2B2  | 
w:   | 
A4 A2B2 c2A2  | G2d2 e2f2 g4  | g4 g6g2  | \
w:   |   |  Be nim  gi  | 
a8 z4  | g8 a4  | b12  | a4 a6a2  | 
w:  bi   |  öz le  |  sen   |  be nim  gi  | 
c'12  | b4 a4 f4  | g12  | g4 g6g2  | a8 z4  | \
w:  bi   |  sev sey  |  din    |  Be nim  gi  |  bi   | 
g8 a4  | b12  | a4 a6a2  | c'12  | b4 a4 f4  | g12  | 
w:  öz le  |  sen   |  be nim  gi  |  bi   |  sev sey  |  din    | 
d4 d4 d4  | g4 f4 e4  | d4 c4 B4  | A12  | \
w:  Dün ya nın   |  bir   |  u cun  |  dan   | 
d4 d6d2  | d12  | B4 A4 B4  | G12  | d4 d4 d4  | 
w:  kal kıp  ba  |  na   |  gel sey  |  din    |  Dün ya nın   | 
g4 f4 e4  | d4 c4 B4  | A12  | d4 d6d2  | d12  | \
w:  bir   |  u cun  |  dan   |  kal kıp  ba  |  na   | 
B4 A4 B4  | G12  | g4 g4 f2e2  | g4 g4 f2e2  | 
w:  gel sey  |  din    |  SAZ  |   | 
g4 g4 f2g2  | a12  | a4 a4 g2f2  | a4 a4 g2f2  | \
w:   |   |   |   | 
a4 a4 g2a2  | b12  | c'4 b4 a4  | 
w:   |   |   | 
g4 f4 e4  | d4 e4 f4  | g12  | g4 f4 e4  | \
w:   |   |   |   | 
d4 c4 B4  | A4 B4 e2d2  | d12  | c4 e2e2 e2e2  | 
w:   |   |   |   | 
B4 d2d2 d2d2  | A4 c2c2 c2c2  | G4 B8  | \
w:   |   |   | 
g4 f4 e4  | d4 c4 B4  | A4 B4 F4  | 
w:   |   |   | 
G12  | c4 e2e2 e2e2  | B4 d2d2 d2d2  | A4 c2c2 c2c2  | \
w:   |   |   |   | 
G4 B8  | g4 f4 e4  | 
w:   |   | 
d4 c4 B4  | A4 B4 F4  | G12  | g8 g4  | g12  | \
w:   |   |   |  Şar kı  |  mı   | 
g4 a4 g4  | f8 z4  | f4 g4 f4  | e12  | d4 e4 f4  | 
w:  se nin_ i  |  çin   |  yaz dı ğı  |  mı   |  bil sey  | 
g12  | g8 g4  | g12  | g4 a4 g4  | f8 z4  | f4 g4 f4  | e12  | \
w:  din    |  Şar kı  |  mı   |  se nin_ i  |  çin   |  yaz dı ğı  |  mı   | 
d4 e4 f4  | g12  | d4 d4 d4  | g4 f4 e4  | 
w:  bil sey  |  din    |  Dün ya nın   |  bir   | 
d4 c4 B4  | A12  | d4 d6d2  | d12  | B4 A4 B4  | G12  | \
w:  u cun  |  dan   |  kal kıp  ba  |  na   |  gel sey  |  din    | 
d4 d4 d4  | g4 f4 e4  | d4 c4 B4  | 
w:  Dün ya nın   |  bir   |  u cun  | 
A12  | d4 d6d2  | d12  | B4 A4 B4  | G12  | d4 d2d2 e2c2  | \
w:  dan   |  kal kıp  ba  |  na   |  gel sey  |  din    |  SAZ  | 
B4 B2c2 d2B2  | A4 A2B2 c2A2  | 
w:   |   | 
G2A2 B2c2 d2e2  | d4 d2d2 e2c2  | B4 B2B2 d2B2  | \
w:   |   |   | 
A4 A2B2 c2A2  | 
w:   | 
G2d2 e2f2 g4  | g4 g6g2  | a8 z4  | g8 a4  | b12  | \
w:   |  Be nim  gi  |  bi   |  öz le  |  sen   | 
a4 a6a2  | c'12  | b4 a4 f4  | g12  | 
w:  be nim  gi  |  bi   |  sev sey  |  din    | 
g4 g6g2  | a8 z4  | g8 a4  | b12  | a4 a6a2  | c'12  | \
w:  Be nim  gi  |  bi   |  öz le  |  sen   |  be nim  gi  |  bi   | 
b4 a4 f4  | g12  | d4 d4 d4  | g4 f4 e4  | 
w:  sev sey  |  din    |  Dün ya nın   |  bir   | 
d4 c4 B4  | A12  | d4 d6d2  | d12  | B4 A4 B4  | G12  | \
w:  u cun  |  dan   |  kal kıp  ba  |  na   |  gel sey  |  din    | 
d4 d4 d4  | g4 f4 e4  | d4 c4 B4  | 
w:  Dün ya nın   |  bir   |  u cun  | 
A12  | d4 d6d2  | d12  | B4 A4 B4  | G12  | |


